assets/icons/outline/code-replace.svg

<svg width="24" height="24" viewBox="0 0 24 24" fill="none" xmlns="http://www.w3.org/2000/svg">
<path d="M11.0001 2.25C11.4142 2.25003 11.7501 2.58581 11.7501 3C11.7501 3.41419 11.4142 3.74997 11.0001 3.75H10.0001C9.3097 3.75 8.75006 4.30964 8.75006 5V6.68945L9.46978 5.96973C9.76268 5.67686 10.2374 5.67684 10.5303 5.96973C10.8231 6.26262 10.8232 6.73741 10.5303 7.03027L8.53033 9.03027C8.23747 9.32314 7.76268 9.32308 7.46978 9.03027L5.46978 7.03027C5.17689 6.73738 5.17689 6.26262 5.46978 5.96973C5.76268 5.67686 6.23745 5.67684 6.53033 5.96973L7.25006 6.68945V5C7.25006 3.48122 8.48127 2.25 10.0001 2.25H11.0001Z" fill="#282828"/>
<path fill-rule="evenodd" clip-rule="evenodd" d="M13.8165 2C14.0823 2.00003 14.2866 2.07373 14.4288 2.22168C14.5772 2.36973 14.6514 2.58592 14.6514 2.86914V4.70508C14.7538 4.54311 14.8988 4.40386 15.087 4.28809C15.3591 4.12073 15.6658 4.03711 16.0059 4.03711C16.4016 4.03717 16.7482 4.13743 17.045 4.33691C17.3478 4.53644 17.5822 4.81982 17.7491 5.18652C17.916 5.55339 18.0001 5.99725 18.0001 6.51855C18.0001 7.02706 17.9161 7.46846 17.7491 7.8418C17.5821 8.21484 17.3478 8.50173 17.045 8.70117C16.7482 8.90065 16.4016 8.99994 16.0059 9C15.6535 9 15.3379 8.91298 15.0596 8.73926C14.8617 8.60814 14.7131 8.44782 14.6133 8.25879C14.5922 8.4706 14.5267 8.63758 14.4102 8.75879C14.2742 8.90681 14.0761 8.98044 13.8165 8.98047C13.5506 8.98047 13.3464 8.90675 13.2042 8.75879C13.0681 8.61074 13.0001 8.39455 13.0001 8.11133V2.86914C13.0001 2.58592 13.0707 2.36973 13.2129 2.22168C13.3552 2.07363 13.5567 2 13.8165 2ZM15.4864 5.30176C15.3195 5.30176 15.1709 5.34411 15.0411 5.42773C14.9112 5.5114 14.8086 5.64306 14.7344 5.82324C14.6602 5.99702 14.6231 6.22893 14.6231 6.51855C14.6231 6.9432 14.7037 7.25219 14.8643 7.44531C15.0251 7.63842 15.2328 7.73535 15.4864 7.73535C15.6532 7.7353 15.7983 7.693 15.9219 7.60938C16.0518 7.51926 16.1544 7.38765 16.2286 7.21387C16.3028 7.03365 16.3399 6.80174 16.3399 6.51855C16.3399 6.08749 16.2593 5.77848 16.0987 5.5918C15.938 5.39877 15.7336 5.30184 15.4864 5.30176Z" fill="#282828"/>
<path fill-rule="evenodd" clip-rule="evenodd" d="M11.5752 13C12.1258 13 12.5763 13.0899 12.9268 13.2695C13.2844 13.4414 13.5526 13.711 13.7314 14.0781C13.9103 14.4375 14 14.9023 14 15.4727V18.0742C14 18.3633 13.9354 18.5859 13.8066 18.7422C13.6779 18.8983 13.4921 18.9765 13.249 18.9766C13.0059 18.9766 12.8166 18.8983 12.6807 18.7422C12.5519 18.5859 12.4873 18.3633 12.4873 18.0742V18.001C12.4372 18.1477 12.3712 18.2822 12.2832 18.4023C12.1473 18.5898 11.9723 18.7383 11.7578 18.8477C11.5433 18.9492 11.2964 19 11.0176 19C10.6314 19 10.2841 18.9179 9.97656 18.7539C9.66903 18.5899 9.42948 18.3671 9.25781 18.0859C9.08614 17.8047 9 17.4883 9 17.1367C9 16.7148 9.1005 16.3828 9.30078 16.1406C9.50101 15.8908 9.82605 15.7148 10.2764 15.6133C10.7269 15.5039 11.3246 15.4492 12.0684 15.4492H12.4551V15.25C12.4551 14.9062 12.3833 14.6641 12.2402 14.5234C12.0972 14.375 11.854 14.3008 11.5107 14.3008C11.3177 14.3008 11.1067 14.3282 10.8779 14.3828C10.6563 14.4297 10.4094 14.5118 10.1377 14.6289C9.98033 14.707 9.84035 14.7266 9.71875 14.6875C9.5972 14.6406 9.50381 14.5625 9.43945 14.4531C9.37515 14.336 9.34375 14.2109 9.34375 14.0781C9.34375 13.9376 9.37874 13.8046 9.4502 13.6797C9.52172 13.5469 9.64018 13.4492 9.80469 13.3867C10.1409 13.2383 10.4557 13.1367 10.749 13.082C11.0494 13.0274 11.3249 13 11.5752 13ZM12.0791 16.3633C11.7144 16.3633 11.4173 16.3867 11.1885 16.4336C10.9669 16.4727 10.8061 16.543 10.7061 16.6445C10.6131 16.7461 10.5664 16.8867 10.5664 17.0664C10.5664 17.2852 10.6346 17.4648 10.7705 17.6055C10.9135 17.746 11.1173 17.8164 11.3818 17.8164C11.5891 17.8164 11.7714 17.7655 11.9287 17.6641C12.0932 17.5547 12.2224 17.4102 12.3154 17.2305C12.4084 17.043 12.4551 16.832 12.4551 16.5977V16.3633H12.0791Z" fill="#282828"/>
<path fill-rule="evenodd" clip-rule="evenodd" d="M18 10.25C19.5188 10.25 20.75 11.4812 20.75 13V19C20.75 20.5188 19.5188 21.75 18 21.75H6C4.48122 21.75 3.25 20.5188 3.25 19V13C3.25 11.4812 4.48122 10.25 6 10.25H18ZM6 11.75C5.30964 11.75 4.75 12.3096 4.75 13V19C4.75 19.6904 5.30964 20.25 6 20.25H18C18.6904 20.25 19.25 19.6904 19.25 19V13C19.25 12.3096 18.6904 11.75 18 11.75H6Z" fill="#282828"/>
</svg>

<svg xmlns="http://www.w3.org/2000/svg" width="24" height="24" fill="none" viewBox="0 0 24 24"><path fill="#282828" d="M11 2.25a.75.75 0 0 1 0 1.5h-1c-.69 0-1.25.56-1.25 1.25v1.69l.72-.72a.75.75 0 1 1 1.06 1.06l-2 2a.75.75 0 0 1-1.06 0l-2-2a.75.75 0 1 1 1.06-1.06l.72.72V5A2.75 2.75 0 0 1 10 2.25z"/><path fill="#282828" fill-rule="evenodd" d="M13.817 2q.398 0 .612.222.222.222.222.647v1.836q.154-.243.436-.417a1.7 1.7 0 0 1 .919-.25q.594 0 1.039.299.454.3.704.85.25.549.251 1.332 0 .763-.25 1.323-.251.56-.705.86a1.8 1.8 0 0 1-1.04.298 1.75 1.75 0 0 1-.945-.26 1.3 1.3 0 0 1-.447-.481q-.029.318-.203.5-.204.221-.594.221-.398 0-.612-.221Q13 8.537 13 8.11V2.87q0-.425.213-.647T13.817 2m1.67 3.302a.8.8 0 0 0-.446.126.83.83 0 0 0-.307.395q-.11.261-.11.696 0 .636.24.926.242.29.622.29a.76.76 0 0 0 .436-.126.9.9 0 0 0 .307-.395q.11-.27.11-.695 0-.647-.24-.927a.76.76 0 0 0-.613-.29M11.575 13q.825 0 1.352.27.536.257.804.808.27.54.269 1.395v2.601q0 .434-.193.668-.194.235-.558.235t-.568-.235q-.195-.234-.194-.668v-.073q-.073.22-.204.401-.203.281-.525.446a1.7 1.7 0 0 1-.74.152q-.58 0-1.041-.246A1.785 1.785 0 0 1 9 17.137q0-.633.3-.996.301-.375.976-.528.676-.165 1.792-.164h.387v-.199q0-.516-.215-.727-.214-.222-.73-.222-.288 0-.632.082a4 4 0 0 0-.74.246q-.237.117-.42.059a.54.54 0 0 1-.279-.235.79.79 0 0 1 .01-.773.64.64 0 0 1 .356-.293 4.3 4.3 0 0 1 1.77-.387m.504 3.363q-.548 0-.89.07-.333.06-.483.212-.14.152-.14.421 0 .33.204.54.215.21.612.21.311 0 .547-.152.246-.165.386-.434.14-.28.14-.632v-.235z" clip-rule="evenodd"/><path fill="#282828" fill-rule="evenodd" d="M18 10.25A2.75 2.75 0 0 1 20.75 13v6A2.75 2.75 0 0 1 18 21.75H6A2.75 2.75 0 0 1 3.25 19v-6A2.75 2.75 0 0 1 6 10.25zm-12 1.5c-.69 0-1.25.56-1.25 1.25v6c0 .69.56 1.25 1.25 1.25h12c.69 0 1.25-.56 1.25-1.25v-6c0-.69-.56-1.25-1.25-1.25z" clip-rule="evenodd"/></svg>
